X: 14775
T: Gan Ainm
R: polka
M: 2/4
K: Dmajor
a/g/|fA d/f/b/a/|gB e>d|cA c/e/a/g/|fA da/g/|
fA d/f/b/a/|gB e>d|cA f>e|df d2||
e2 e/f/e/f/|ec/e/ ae/a/|c'b/a/ ^gf/g/|ba/^g/ fe|
e2 e/f/e/f/|ec/e/ ae/a/|c'b/a/ ^gf/g/|a2 g2||
fe d>c|BA d>e|fg af|gb ea/g/|
fe d>c|BA d/e/f/g/|bg ec|df d2||

